X:225
T: DER GOTT DER EISEN WACHSEN LIESS
N: F0385
O: Europa, Mitteleuropa, Deutschland
R: Vaterlands -, Heimat - Lied, nationalistisch, Krieg
M: 4/4
L: 1/16
K: Eb
B4 | e6E2G4E4 | c6c2c4
c4 | B6A2G4F4 | G4E4z4
B4 | e6E2G4E4 | c6c2c4
f4 | d6c2B4c4 | d4B4z4
B4 | B6B2c6c2 | d6d2e6
B2 | a6f2g4e4 | d3ef4z4
B4 | g6f2e4d4 | c4B4A4
G4 | F4c4B4A4 | G8F8 | E4z8

@@@ Tune index: 5656
